adaptive-icons/Test-Icons--V5/action/bug-64.svg

<svg height="64" viewBox="0 0 64 64" width="64" xmlns="http://www.w3.org/2000/svg"><path d="m39.95 14.821c4.1-2.565 6.154-5.898 6.666-9.488m-29.232 0c.512 3.59 2.821 6.667 6.667 9.488m22.821 12.819c0-8.205-6.667-14.872-14.872-14.872s-14.872 6.41-14.872 14.616v16.41c0 8.206 6.667 14.874 14.872 14.874s14.872-6.668 14.872-14.873zm11.795 23.592-2.822-3.077h-9.624m12.446-18.256-2.822-3.078h-8.973m-29.744 0h-8.973l-2.822 3.079m53.334 10.666-2.822-3.077h-8.973m-29.093 10.663h-9.624l-2.822 3.077m11.795-13.741h-8.973l-2.822 3.077m23.59 7.587h6.154m-8.976-21.333h11.795m-11.795 10.666h11.795" fill="none" stroke="#282d37" stroke-linecap="round" stroke-linejoin="round" stroke-width="4.5"/></svg>

<svg xmlns="http://www.w3.org/2000/svg" id="3" width="64" height="64" viewBox="0 0 64 64"><g fill="none" fill-rule="evenodd" stroke-linecap="round" stroke-linejoin="round" class="page-1"><g stroke="#282D37" stroke-width="4.5" class="bug"><path d="M39.95 14.821c4.1-2.565 6.154-5.898 6.666-9.488m-29.232 0c.512 3.59 2.821 6.667 6.667 9.488M46.872 27.64c0-8.205-6.667-14.872-14.872-14.872s-14.872 6.41-14.872 14.616v16.41C17.128 52 23.795 58.668 32 58.668S46.872 52 46.872 43.795V27.64Zm11.795 23.592-2.822-3.077h-9.624m12.446-18.256-2.822-3.078h-8.973m-29.744 0H8.155L5.333 29.9m53.334 10.666-2.822-3.077h-8.973M17.779 48.152H8.155l-2.822 3.077m11.795-13.741H8.155l-2.822 3.077m23.59 7.587h6.154m-8.976-21.333h11.795M26.101 37.485h11.795" class="stroke"/></g></g></svg>
